cssgg/trees.svg

<svg
  width="24"
  height="24"
  viewBox="0 0 24 24"
  fill="none"
  xmlns="http://www.w3.org/2000/svg"
>
  <path
    fill-rule="evenodd"
    clip-rule="evenodd"
    d="M12.7401 16.3185C12.035 17.1126 11.0808 17.6806 10 17.9V21C10 21.5523 9.55228 22 9 22C8.44772 22 8 21.5523 8 21V17.9C5.71776 17.4367 4 15.419 4 13V7C4 4.23858 6.23858 2 9 2C11.6087 2 13.7508 3.99781 13.9797 6.54693C14.5726 6.1993 15.2631 6 16 6C18.2091 6 20 7.79086 20 10V14C20 15.8638 18.7252 17.4299 17 17.874V21C17 21.5523 16.5523 22 16 22C15.4477 22 15 21.5523 15 21V17.874C14.0747 17.6358 13.279 17.075 12.7401 16.3185ZM12 7V13C12 14.3062 11.1652 15.4175 10 15.8293V13C10 12.4477 9.55228 12 9 12C8.44772 12 8 12.4477 8 13V15.8293C6.83481 15.4175 6 14.3062 6 13V7C6 5.34315 7.34315 4 9 4C10.6569 4 12 5.34315 12 7ZM17 15.7324V13C17 12.4477 16.5523 12 16 12C15.4477 12 15 12.4477 15 13V15.7324C14.4022 15.3866 14 14.7403 14 14V10C14 8.89543 14.8954 8 16 8C17.1046 8 18 8.89543 18 10V14C18 14.7403 17.5978 15.3866 17 15.7324Z"
    fill="currentColor"
  />
</svg>

<svg viewBox="0 0 24 24" xmlns="http://www.w3.org/2000/svg"><path fill-rule="evenodd" d="M12.74 16.31c-.71.79-1.66 1.36-2.75 1.58v3.1c0 .55-.45 1-1 1 -.56 0-1-.45-1-1v-3.1c-2.29-.47-4-2.49-4-4.9v-6c0-2.77 2.23-5 5-5 2.6 0 4.75 1.99 4.97 4.54 .59-.35 1.28-.55 2.02-.55 2.2 0 4 1.79 4 4v4c0 1.86-1.28 3.42-3 3.87v3.12c0 .55-.45 1-1 1 -.56 0-1-.45-1-1v-3.13c-.93-.24-1.721-.8-2.26-1.56Zm-.75-9.32v6c0 1.3-.84 2.41-2 2.82v-2.83c0-.56-.45-1-1-1 -.56 0-1 .44-1 1v2.82c-1.17-.42-2-1.53-2-2.83v-6c0-1.66 1.34-3 3-3 1.65 0 3 1.34 3 3Zm5 8.73v-2.74c0-.56-.45-1-1-1 -.56 0-1 .44-1 1v2.73c-.6-.35-1-1-1-1.74v-4c0-1.11.89-2 2-2 1.1 0 2 .89 2 2v4c0 .74-.41 1.38-1 1.73Z"/></svg>
